X:1
T:Petit Branle
S:http://www.fourwinds.demon.nl/branles.htm
Z:Jack Campin <http://www.purr.demon.co.uk/jack/> 2002
M:C|
L:1/8
K:D Dorian
f2e2 defg|a2g2 f2c2|f2e2 defg|a2g2  f4 :|
g2g2 g3 a|gfga g4  |g2a2 gafg|efde ^c2A2|
f2e2 defg|a2g2 f4  |c2c2 c3 d|cdBc  A2F2|
f2e2 defg|a2g2 f3 g|g3 a a3 g|fge2  d4 :|
